src/objects/phone/1F4DE.svg

<svg id="emoji" viewBox="0 0 72 72" xmlns="http://www.w3.org/2000/svg">
  <g id="grid">
    <path fill="#b3b3b3" d="M68,4V68H4V4H68m4-4H0V72H72V0Z"/>
    <path fill="none" stroke="#00a5ff" stroke-miterlimit="10" stroke-width="0.1" d="M12.923,10.9583H59.0769A1.9231,1.9231,0,0,1,61,12.8814V59.0352a1.9231,1.9231,0,0,1-1.9231,1.9231H12.9231A1.9231,1.9231,0,0,1,11,59.0352V12.8813A1.923,1.923,0,0,1,12.923,10.9583Z"/>
    <rect x="16" y="4" rx="2.2537" width="40" height="64" fill="none" stroke="#00a5ff" stroke-miterlimit="10" stroke-width="0.1"/>
    <rect x="16" y="4" rx="2.2537" width="40" height="64" transform="translate(72) rotate(90)" fill="none" stroke="#00a5ff" stroke-miterlimit="10" stroke-width="0.1"/>
    <circle cx="36" cy="36" r="29" fill="none" stroke="#00a5ff" stroke-miterlimit="10" stroke-width="0.1"/>
  </g>
  <g id="color">
    <path fill="#d0cfce" stroke="none" stroke-linecap="round" stroke-linejoin="round" stroke-miterlimit="10" stroke-width="2" d="M13.6707,21.3098c1.4142,9.8995,26.8701,35.3553,36.7696,36.7696c0,0,5.6569,0,8.4853-5.6569l-9.1924-9.1924l-3.5355,3.5355 c-7.0711-1.4142-19.799-14.1421-21.2132-21.2132l3.5355-3.5355l-9.1924-9.1924C13.6707,15.6529,13.6707,21.3098,13.6707,21.3098z"/>
    <polygon fill="#9b9b9a" stroke="none" points="25,26 15.125,16.25 19,13 27.75,21.875"/>
    <polygon fill="#9b9b9a" stroke="none" points="56,57 46.125,47.25 50,44 58.75,52.875"/>
  </g>
  <g id="hair"/>
  <g id="skin"/>
  <g id="skin-shadow"/>
  <g id="line">
    <path fill="none" stroke="#000000" stroke-linecap="round" stroke-linejoin="round" stroke-miterlimit="10" stroke-width="2" d="M13.6707,21.3098c1.4142,9.8995,26.8701,35.3553,36.7696,36.7696c0,0,5.6569,0,8.4853-5.6569l-9.1924-9.1924l-3.5355,3.5355 c-7.0711-1.4142-19.799-14.1421-21.2132-21.2132l3.5355-3.5355l-9.1924-9.1924C13.6707,15.6529,13.6707,21.3098,13.6707,21.3098z"/>
    <path fill="none" stroke="#000000" stroke-linecap="round" stroke-linejoin="round" stroke-miterlimit="10" stroke-width="2" d="M13.6707,21.3098c1.4142,9.8995,26.8701,35.3553,36.7696,36.7696c0,0,5.6569,0,8.4853-5.6569l-9.1924-9.1924l-3.5355,3.5355 c-7.0711-1.4142-19.799-14.1421-21.2132-21.2132l3.5355-3.5355l-9.1924-9.1924C13.6707,15.6529,13.6707,21.3098,13.6707,21.3098z"/>
  </g>
</svg>

<svg viewBox="0 0 72 72" xmlns="http://www.w3.org/2000/svg"><path fill="#b3b3b3" d="M68 4v64H4V4h64m4-4H0v72h72V0z"/><path fill="none" stroke="#00a5ff" stroke-miterlimit="10" stroke-width=".1" d="M12.923 10.958h46.154A1.923 1.923 0 0161 12.881v46.154a1.923 1.923 0 01-1.923 1.923H12.923A1.923 1.923 0 0111 59.035V12.881a1.923 1.923 0 011.923-1.923z"/><rect x="16" y="4" rx="2.254" width="40" height="64" fill="none" stroke="#00a5ff" stroke-miterlimit="10" stroke-width=".1"/><rect x="16" y="4" rx="2.254" width="40" height="64" transform="rotate(90 36 36)" fill="none" stroke="#00a5ff" stroke-miterlimit="10" stroke-width=".1"/><circle cx="36" cy="36" r="29" fill="none" stroke="#00a5ff" stroke-miterlimit="10" stroke-width=".1"/><g stroke-linecap="round" stroke-miterlimit="10" stroke-width="6" stroke="#fff" fill="none" stroke-linejoin="round"><path d="M13.67 21.31c1.415 9.9 26.87 35.355 36.77 36.77 0 0 5.657 0 8.486-5.658l-9.193-9.192-3.535 3.536c-7.071-1.415-19.8-14.143-21.214-21.214l3.536-3.535-9.192-9.193c-5.657 2.829-5.657 8.486-5.657 8.486z"/><path d="M13.67 21.31c1.415 9.9 26.87 35.355 36.77 36.77 0 0 5.657 0 8.486-5.658l-9.193-9.192-3.535 3.536c-7.071-1.415-19.8-14.143-21.214-21.214l3.536-3.535-9.192-9.193c-5.657 2.829-5.657 8.486-5.657 8.486z"/></g><path fill="#d0cfce" d="M13.67 21.31c1.415 9.9 26.87 35.355 36.77 36.77 0 0 5.657 0 8.486-5.658l-9.193-9.192-3.535 3.536c-7.071-1.415-19.8-14.143-21.214-21.214l3.536-3.535-9.192-9.193c-5.657 2.829-5.657 8.486-5.657 8.486z"/><path fill="#9b9b9a" d="M25 26l-9.875-9.75L19 13l8.75 8.875zm31 31l-9.875-9.75L50 44l8.75 8.875z"/><g fill="none" stroke="#000" stroke-linecap="round" stroke-linejoin="round" stroke-miterlimit="10" stroke-width="2"><path d="M13.67 21.31c1.415 9.9 26.87 35.355 36.77 36.77 0 0 5.657 0 8.486-5.658l-9.193-9.192-3.535 3.536c-7.071-1.415-19.8-14.143-21.214-21.214l3.536-3.535-9.192-9.193c-5.657 2.829-5.657 8.486-5.657 8.486z"/><path d="M13.67 21.31c1.415 9.9 26.87 35.355 36.77 36.77 0 0 5.657 0 8.486-5.658l-9.193-9.192-3.535 3.536c-7.071-1.415-19.8-14.143-21.214-21.214l3.536-3.535-9.192-9.193c-5.657 2.829-5.657 8.486-5.657 8.486z"/></g></svg>
